!!!SOCIAL_FUNCTION:	songs connected with girls' adolescence ceremony
!!!PDT:	1958
!!!OTL: No_43_Make_the_Girls_Happy.krn
!!!REG: Northern California
!!!LANG: Non-Tone
!!!LING_GROUP: Penutian
**kern
*staff1
=1-
*clefF4
*k[]
*M3/8
4r
8d\
=2
4c\
16d\LL
16d\JJ
=3
(8c\L
16d\Jk)
16r
16c\LL
16c\JJ
=4
(8A\L
8c\)
16c\L
16c\JJ
=5
8c\L
16c\Jk
16r
8d\
=6
(8c\L
16d\Jk)
16r
16d\LL
16d\JJ
=7
(8c\L
16A\Jk)
16r
16c\LL
16c\JJ
=8
4c\
16c\LL
16c\JJ
=9
8c\
8r
8e\
=10!|:
*M5/8
8e\L
8d\
8c\
8d\
8d\J
=11
8d\L
8c\
8A\
16c\Jk
16r
8d\
=12
8c\L
8d\
8c\
8d\
16c\L
16c\JJ
=13
*M3/8
8c\L
8c\
16d\L
16d\JJ
=14
8c\L
8c\
16c\L
16c\JJ
=15
8c\
8r
16e\LL
16d\JJ
=16
(8c\L
16d\Jk)
16r
16d\LL
16d\JJ
=17
(8c\L
16A\Jk)
16r
16c\LL
16c\JJ
=18
4c\
16c\LL
16c\JJ
=19
8c\
8r
8e\
=20:|!
8c\
4r
==
*-
